packages/icons/svg/Fill/flag.svg

<svg width="24" height="24" viewBox="0 0 24 24" fill="none" xmlns="http://www.w3.org/2000/svg">
<g id="Icon/Fill/flag">
<path id="Mask" fill-rule="evenodd" clip-rule="evenodd" d="M19.2675 4.67969C18.8055 4.34569 18.2075 4.25069 17.6685 4.42669C17.0925 4.61469 16.3425 4.71369 15.4995 4.71369C14.3755 4.71369 13.3995 4.33069 12.3655 3.92569C11.2035 3.47069 10.0005 2.99969 8.49951 2.99969C5.61351 2.99969 4.49551 3.95169 4.29951 4.14369C4.10851 4.33069 3.99951 4.58869 3.99951 4.85769V11.9997V15.1427V19.9997C3.99951 20.5527 4.44751 20.9997 4.99951 20.9997C5.55251 20.9997 5.99951 20.5527 5.99951 19.9997V15.7017C6.39451 15.5267 7.17251 15.2857 8.49951 15.2857C9.62351 15.2857 10.6005 15.6687 11.6345 16.0747C12.7965 16.5297 13.9985 16.9997 15.4995 16.9997C17.3085 16.9997 18.4225 16.6217 19.0405 16.3047C19.6325 15.9977 19.9995 15.4027 19.9995 14.7487V6.10569C19.9995 5.54569 19.7265 5.01269 19.2675 4.67969Z" fill="#000000"/>
</g>
</svg>

<svg fill="none" height="24" viewBox="0 0 24 24" width="24" xmlns="http://www.w3.org/2000/svg"><path clip-rule="evenodd" d="m19.2676 4.67976c-.462-.334-1.06-.429-1.599-.253-.576.188-1.326.287-2.169.287-1.124 0-2.1-.383-3.134-.788-1.162-.455-2.365-.926-3.866-.926-2.886 0-4.004.952-4.2 1.144-.191.187-.3.445-.3.714v7.14204 3.143 4.857c0 .553.448 1 1 1 .553 0 1-.447 1-1v-4.298c.395-.175 1.173-.416 2.5-.416 1.124 0 2.101.383 3.135.789 1.162.455 2.364.925 3.865.925 1.809 0 2.923-.378 3.541-.695.592-.307.959-.902.959-1.556v-8.64304c0-.56-.273-1.093-.732-1.426" fill="#6b7280" fill-rule="evenodd"/></svg>
